X: 18533
T: I Have A Bonnet Trimmed With Blue
R: polka
M: 2/4
K: Gmajor
|:FA ce|dB B2|dd/4e/4d/ cA|GB BG|
FA ce|dB B2|dd/4e/4d/ cA|AG G2:|
|:ce ge|dB B2|dd/4e/4d/ cA|GB BG|
ce ge|dB B2|dd/4e/4d/ cA|AG G2:|

